source/img/services/services-nav/design-icon.svg

<svg width="33" height="33" viewBox="0 0 33 33" fill="none" xmlns="http://www.w3.org/2000/svg">
<path d="M21.0317 22.3607C20.4684 21.6996 19.4758 21.6202 18.8147 22.1834C18.4571 22.488 18.2697 22.9182 18.2621 23.3536L18.6374 24.4005C19.2006 25.0617 20.1932 25.141 20.8544 24.5778C21.5156 24.0145 21.595 23.0219 21.0317 22.3607Z" fill="#AAAAAA"/>
<path d="M18.3514 13.6966C18.8671 12.9977 18.7186 12.013 18.0197 11.4973C17.6418 11.2184 17.1803 11.1338 16.7545 11.2254L15.8205 11.829C15.3048 12.5279 15.4533 13.5125 16.1522 14.0283C16.8511 14.544 17.8357 14.3955 18.3514 13.6966Z" fill="#AAAAAA"/>
<path d="M14.4061 17.2513C14.9218 16.5524 14.7733 15.5677 14.0744 15.052C13.6965 14.7731 13.2349 14.6885 12.8092 14.7801L11.8752 15.3837C11.3595 16.0826 11.508 17.0672 12.2069 17.5829C12.9058 18.0987 13.8904 17.9502 14.4061 17.2513Z" fill="#AAAAAA"/>
<path d="M28.0842 17.8126C28.0842 23.0241 23.8595 27.6419 18.6481 27.6419C17.7307 27.6419 16.289 27.2488 15.8959 26.8556C15.2939 26.2537 17.6082 22.0978 11.571 20.5648C10.7846 20.3027 9.21191 19.3853 9.21191 17.8126C9.21191 12.6012 13.4366 8.37646 18.6481 8.37646C22.0588 8.37646 25.0469 10.1861 26.7047 12.8976" stroke="#0A3D76" stroke-width="0.7" stroke-linecap="round" stroke-linejoin="round"/>
<path d="M11.1779 11.129C11.1779 4.83832 8.81885 4.83802 8.81885 11.129V20.5649H11.1779V11.129Z" fill="#AAAAAA"/>
<path d="M8.81885 11.129C8.81885 4.83801 11.1779 4.8383 11.1779 11.129V20.5649M8.81885 20.5649V22.9242L11.1779 22.9243V20.5649M8.81885 20.5649H11.1779M8.81885 20.5649V13.0946" stroke="#0A3D76" stroke-width="0.7" stroke-linecap="round"/>
<path d="M8.03227 26.4624C8.03227 23.7101 8.42544 23.3169 9.99798 23.317L11.1777 23.3169C14.323 26.8554 9.99813 29.2145 6.06641 28.4281C7.6391 28.4281 8.03242 27.2486 8.03227 26.4624Z" fill="#AAAAAA"/>
<path d="M9.92165 28.4071C8.80906 28.8358 7.41418 28.9503 6.06641 28.6628C7.60856 28.6628 7.99425 27.4292 7.9941 26.6068C7.9941 23.7281 8.37964 23.3169 9.92165 23.317V23.317C10.8989 23.3169 11.9336 23.7139 12.2302 24.645C12.6192 25.8664 12.0638 26.8907 11.2517 27.6192" stroke="#0A3D76" stroke-width="0.7" stroke-linecap="round" stroke-linejoin="round"/>
<path d="M17.0751 14.274C17.9437 14.274 18.6478 13.5699 18.6478 12.7014C18.6478 11.8328 17.9437 11.1287 17.0751 11.1287C16.2066 11.1287 15.5024 11.8328 15.5024 12.7014C15.5024 13.1002 15.6509 13.4644 15.8956 13.7416" stroke="#0A3D76" stroke-width="0.7" stroke-linecap="round"/>
<path d="M21.0602 14.6813C21.285 15.5203 22.1474 16.0182 22.9864 15.7934C23.4401 15.6718 23.7941 15.3638 23.9879 14.9738L24.0984 13.8672C23.8736 13.0283 23.0113 12.5304 22.1723 12.7552C21.3333 12.98 20.8354 13.8424 21.0602 14.6813Z" fill="#AAAAAA"/>
<path d="M22.9849 17.9555C22.2169 18.3612 21.9232 19.3127 22.329 20.0807C22.5484 20.496 22.9274 20.7726 23.3507 20.8749L24.4542 20.7366C25.2222 20.3309 25.5158 19.3794 25.1101 18.6114C24.7043 17.8434 23.7529 17.5497 22.9849 17.9555Z" fill="#AAAAAA"/>
<path d="M22.5795 12.7012C21.711 12.7012 21.0068 13.4053 21.0068 14.2739C21.0068 15.1424 21.711 15.8466 22.5795 15.8466C23.4481 15.8466 24.1522 15.1424 24.1522 14.2739C24.1522 13.8041 23.9463 13.3825 23.6198 13.0943" stroke="#0A3D76" stroke-width="0.7" stroke-linecap="round"/>
<path d="M25.3319 19.3852C25.3319 18.5166 24.6278 17.8125 23.7592 17.8125C22.8906 17.8125 22.1865 18.5166 22.1865 19.3852C22.1865 20.2538 22.8906 20.9579 23.7592 20.9579C24.1581 20.9579 24.5222 20.8094 24.7995 20.5647" stroke="#0A3D76" stroke-width="0.7" stroke-linecap="round"/>
<path d="M19.8276 24.8895C18.959 24.8895 18.2549 24.1854 18.2549 23.3168C18.2549 22.4483 18.959 21.7441 19.8276 21.7441C20.6961 21.7441 21.4003 22.4483 21.4003 23.3168C21.4003 23.6033 21.3237 23.8719 21.1899 24.1032" stroke="#0A3D76" stroke-width="0.7" stroke-linecap="round"/>
<path d="M13.1435 17.8126C12.2749 17.8126 11.5708 17.1085 11.5708 16.2399C11.5708 15.3714 12.2749 14.6672 13.1435 14.6672C14.0121 14.6672 14.7162 15.3714 14.7162 16.2399C14.7162 16.5557 14.6231 16.8497 14.4629 17.0961" stroke="#0A3D76" stroke-width="0.7" stroke-linecap="round"/>
</svg>

<svg width="33" height="33" fill="none" xmlns="http://www.w3.org/2000/svg"><path d="M21.032 22.36a1.573 1.573 0 00-2.77.994l.375 1.047a1.573 1.573 0 102.395-2.04zm-2.681-8.663a1.573 1.573 0 00-1.596-2.472l-.934.604a1.573 1.573 0 002.53 1.868zm-3.945 3.554a1.573 1.573 0 00-1.597-2.47l-.934.603a1.573 1.573 0 002.531 1.867z" fill="#AAA"/><path d="M28.084 17.813c0 5.211-4.224 9.829-9.436 9.829-.917 0-2.359-.393-2.752-.786-.602-.602 1.712-4.758-4.325-6.291-.786-.262-2.36-1.18-2.36-2.752a9.436 9.436 0 0117.494-4.915" stroke="#0A3D76" stroke-width=".7" stroke-linecap="round" stroke-linejoin="round"/><path d="M11.178 11.129c0-6.29-2.36-6.291-2.36 0v9.436h2.36v-9.436z" fill="#AAA"/><path d="M8.819 11.129c0-6.291 2.359-6.29 2.359 0v9.436m-2.36 0v2.36h2.36v-2.36m-2.36 0h2.36m-2.36 0v-7.47" stroke="#0A3D76" stroke-width=".7" stroke-linecap="round"/><path d="M8.032 26.462c0-2.752.393-3.145 1.966-3.145h1.18c3.145 3.538-1.18 5.898-5.112 5.111 1.573 0 1.966-1.18 1.966-1.966z" fill="#AAA"/><path d="M9.922 28.407c-1.113.429-2.508.543-3.856.256 1.543 0 1.928-1.234 1.928-2.056 0-2.879.386-3.29 1.928-3.29v0c.977 0 2.012.397 2.308 1.328.39 1.221-.166 2.246-.978 2.974" stroke="#0A3D76" stroke-width=".7" stroke-linecap="round" stroke-linejoin="round"/><path d="M17.075 14.274a1.573 1.573 0 10-1.18-.532" stroke="#0A3D76" stroke-width=".7" stroke-linecap="round"/><path d="M21.06 14.681a1.573 1.573 0 002.928.293l.11-1.107a1.573 1.573 0 00-3.038.814zm1.925 3.275a1.573 1.573 0 00.366 2.919l1.103-.138a1.573 1.573 0 10-1.47-2.781z" fill="#AAA"/><path d="M22.58 12.701a1.573 1.573 0 101.04.393m1.712 6.291a1.573 1.573 0 10-.533 1.18m-4.971 4.325a1.573 1.573 0 111.362-.787m-8.047-6.29a1.573 1.573 0 111.32-.717" stroke="#0A3D76" stroke-width=".7" stroke-linecap="round"/></svg>
